X: 22
T: No_2_Song_of_the_Hesi_Dance_(b).krn
N: Derived from No_2_Song_of_the_Hesi_Dance_(b).krn
%%abc-version 2.0
%%abcx-abcm2ps-target-version 5.9.1 (29 Sep 2008)
%%abc-creator hum2abc beta
%%abcx-conversion-date 2019/03/15 08:35:00
%%humdrum-veritas 1331735466
%%humdrum-veritas-data 3907897195
%%linebreak <none>
%%barnumbers 0
L: 1/16
M: 3/4
K: Eb clef=bass
[K:clef=bass][M:3/4]G,2G,A, G,2(G,F,) B,G,G,2 | 
[M:2/4](G,F,)E,C, C,2C, z | 
[M:3/4]G,2G,3/F,/ F,2E,F, F,2F,2 | 
[M:2/4](G,F,)E,C, C,2C, z | 
[M:3/4]G,2G,3/F,/ F,2F,2 G,2G,2 ]|:  
[M:2/4](G,F,)E,C, C,2C, z | 
[M:3/4]G,2G,3/F,/ F,2(E,F,) F,2F,2 ||  
[M:2/4](G,F,)E,C, C,2C, z | 
[M:3/4]G,2G,3/G,/ F,2(F,G,) (B,A,)G,2 :|]  



